X:1
T:Petit nuage
R:jig
C:Jean Banwarth
S:Jean Banwarth
D:CEOL "The last order" ref. EDMI 01
M:6/8
L:1/8
K:D
z3dcd|:"D"AFDDFA|"Em"BEEBcd|"Bm"ffffgf|"A"ecAAce|"D"fffagf|"C"eeegfe|"G"dddfed|1"A"ecAdcd:|2"A"ecAfec|:"Bm"dBBFBD|"Bm"B,DFBed|"A"cAA^GAE|"F#m"ceaAce|"Bm"dBBFBD|"Bm"B,DF"A"Bed|"G"GBdgfg|1"A"ecAfec:|2"A"ecAdcd| \
